X:46
T:Old Bush, The
R:reel
Z:Transcribed by Dave Marshall
M:C|
K:Dmix
A2GA cA~A2|d^cde fded|A2GA cA~A2|dfed cAAG|
A2GA cA~A2|d^cde ~f3g|afge fde^c|1 dfed cAAG:|2 dfed cA~A2
|:e~g3 edcd|egge c3d|e~g3 afge|dfed cA~A2|
e~g3 a~g3|egge defg|afge fde^c|1 dfed cA~A2:|2 dfed cAAG||
